X: 29346
T: Newly Wed's, The
R: reel
M: 4/4
K: Gmajor
|:g2 fg edef|gedc BA G2|g2 fg ed B2|eaag fdef|
g2 fg edef|gedc BGFG|EFGA BdAF|G3A G4:|
|:BGFG EGDc|BGAB cedc|BGFG EGDc|GBAF G3A|
BGFG EGDc|BGAB cedc|BGFG EGDc|BGAF G4:|

